X: 0
T: Lintunen
O: Finland, Estonia
P: Lintunen   [Dm/C]
R: polka
M: 2/4
L: 1/8
K: Dm
|: "Gm"DG GG | GG G2 | "A7"GE FG | "Dm"F-F D2 :|
w: Len-n\"a lin-n\"a lin-tu-nen len-n\"a kul-lan kau-*laan.
w: Sil-lo-in on tal-lel-la, kun on k\"a-si-var-rel-la,
K: C
|: "G7"D>E FD | "C"CC EC | "G7"B,2 DD | "C"C2 C2 :|
w: Kun on nuo-ret tans-si-mas-sa rai ri-tu ral-laa.
w: ta-hi kul-lan kai-na-los-sa, rai ri-tu ral-laa.
P: Lintunen   [Em/D]
R: polka
M: 2/4
L: 1/8
K: Em
|: "Am"EA AA | A2 AA | "B7"AF GA | "Em"G2 E2 :|
K: D
|: "A7"E>F GE | "D"DD FD | "A7"C2 EE | "D"D2 D2 :|

%%sep 1 1 500

